!!!!SEGMENT: pl-cz--iii-31--004_bolehovsky-josef--litaniae-rosa-mystica.krn
!!!cenid: 17xx:831
!!!COM: Bolehovský, Josef
!!!COM-rismID: pe30000404
!!!CDT: 1743-1811
!!!CNT: Czech
!!!OPR: Litaniae
!!!OTL: Rosa mystica
!!!OMV: 004
!!!PDT:
!!!AGN: Sacred; Mass
!!!SMS-siglum: PL-CZ
!!!SMS-shelfmark: III-31
!!!SMS-shelfwork: 001-004 M
!!!SMS-variant:
!!!SMS-altvar:
!!!NIFC-rismSourceID: 300237604
!!!NIFC-rismChildID: 300237604
!!!NIFC-islandoraID: pl-cz:37498
!!!URL-pdf-islandora: https://repozytorium.nifc.pl/islandora/object/pl-cz%3A37498/datastream/PDF/view
!!!URL-scan: https://polish.musicsources.pl/pl/lokalizacje/galeria/rekopisy/6898/1 @EN{Scan on Polish Music Sources Website} @PL{Skany w portalu Dziedzictwo Muzyki Polskiej w otwartym dostępie}
!!!IIIF:
!!!ONB-nifc: UWAGA: części Litanii: Kyrie, Sancta Maria, Virgo prudentissima, Rosa mystica, Salus infirmorum, Regina angelorum, Agnus Dei
!!!AIN: 1 alto 3 empty 1 organ 1 tenor 3 violn 1 vox
!!!key:
**kern	**fba	**dynam	**kern	**kern	**dynam	**kern	**kern	**text	**kern	**kern	**kern	**kern	**kern
*part10	*	*part10	*part9	*part8	*part8	*part7	*part6	*part6	*part5	*part4	*part3	*part2	*part1
*staff10	*	*	*staff9	*staff8	*	*staff7	*staff6	*staff6	*staff5	*staff4	*staff3	*staff2	*staff1
*Iorgan	*	*	*Ivioln	*Ivioln	*	*Ivioln	*Iempty	*	*Itenor	*Ialto	*Ivox	*Iempty	*Iempty
*I"Organo	*	*	*I"Violino 2do	*I"Violino Primo	*	*I"Violino Principali	*I"Baſso.	*	*I"Tenore	*I"Alto.	*I"Canto.	*I"Clarino Secundo in D#	*I"Clarino Primo in D#
*I'org	*	*	*I'vl 2	*I'vl 1	*	*I'vl princ	*I'B	*	*I'T	*I'A	*I'S	*I'clno in E♭	*I'clno 1 in E♭
*clefF4	*	*	*clefG2	*clefG2	*	*clefG2	*clefF4	*	*clefC4	*clefC3	*clefC1	*clefG2	*clefG2
*	*	*	*	*	*	*	*	*	*	*	*	*ITrd-2c-3	*ITrd-2c-3
*k[f#]	*	*	*k[f#]	*k[f#]	*	*k[f#]	*k[f#]	*	*k[f#]	*k[f#]	*k[f#]	*k[b-e-a-]	*k[b-e-a-]
*G:	*	*	*G:	*G:	*	*G:	*G:	*	*G:	*G:	*G:	*G:	*G:
*M4/4	*	*	*M4/4	*M4/4	*	*M4/4	*M4/4	*	*M4/4	*M4/4	*M4/4	*M4/4	*M4/4
*met(c)	*	*	*met(c)	*met(c)	*	*met(c)	*met(c)	*	*met(c)	*met(c)	*met(c)	*met(c)	*met(c)
=1	=1	=1	=1	=1	=1	=1	=1	=1	=1	=1	=1	=1	=1
!	!	!	!	!LO:TX:a:t=Rosa	!	!	!	!	!	!	!	!	!
!LO:TX:a:rj:t=adagio	!	!	!LO:TX:a:t=Rosa Tacet	!LO:TX:a:t=ada&colon;	!	!LO:SIC:o:s=:v:gra tylko w części "Regina"	!	!	!LO:TX:a:t=Rosa Tacet	!LO:TX:a:t=Rosa Tacet	!LO:TX:a:t=Rosa Tacet	!LO:TX:a:t=Rosa et Salus Tacet	!LO:TX:a:t=Rosa et Salus Tacet
!LO:TX:a:t=Solo	!	!	!	!LO:TX:a:t=Solo.	!	!	!	!	!	!	!	!	!
8GL\	.	.	1ryy	8g/L	.	1ryy	00r	.	1ryy	1ryy	1ryy	1ryy	1ryy
8A\	.	.	.	8G/J	.	.	.	.	.	.	.	.	.
8B\	6	.	.	16r	.	.	.	.	.	.	.	.	.
.	.	.	.	16g/LL	.	.	.	.	.	.	.	.	.
8G\J	.	.	.	16b/	.	.	.	.	.	.	.	.	.
.	.	.	.	16g/JJ	.	.	.	.	.	.	.	.	.
8D\L	.	.	.	8a/L	.	.	.	.	.	.	.	.	.
8E\	.	.	.	8d/J	.	.	.	.	.	.	.	.	.
8F#\J	6	.	.	16r	.	.	.	.	.	.	.	.	.
.	.	.	.	16dd\LL	.	.	.	.	.	.	.	.	.
8r	.	.	.	16ccc\	.	.	.	.	.	.	.	.	.
.	.	.	.	16aa\JJ	.	.	.	.	.	.	.	.	.
=2	=2	=2	=2	=2	=2	=2	=2	=2	=2	=2	=2	=2	=2
8D\	.	.	1ryy	16gg\LL	.	1ryy	.	.	1ryy	1ryy	1ryy	1ryy	1ryy
.	.	.	.	16ff#\	.	.	.	.	.	.	.	.	.
8r	.	.	.	16aa\	.	.	.	.	.	.	.	.	.
.	.	.	.	16ff#\JJ	.	.	.	.	.	.	.	.	.
8F#\	6	.	.	16ee\LL	.	.	.	.	.	.	.	.	.
.	.	.	.	16dd\	.	.	.	.	.	.	.	.	.
8r	.	.	.	16aa\	.	.	.	.	.	.	.	.	.
.	.	.	.	16cc\JJ	.	.	.	.	.	.	.	.	.
!LO:TX:a:t=P:mixedbeam:problem	!	!	!	!LO:SIC:o:s=:v:klamra łukowa, haczyk zamiast numeru	!	!	!	!	!	!	!	!	!
16GG/LL	.	.	.	24b\LL	.	.	.	.	.	.	.	.	.
.	.	.	.	24cc\	.	.	.	.	.	.	.	.	.
16G\	.	.	.	.	.	.	.	.	.	.	.	.	.
.	.	.	.	24dd\J	.	.	.	.	.	.	.	.	.
16F#\	.	.	.	8dd\J	.	.	.	.	.	.	.	.	.
16E\JJ	.	.	.	.	.	.	.	.	.	.	.	.	.
8F#\	.	.	.	16r	.	.	.	.	.	.	.	.	.
.	.	.	.	16dd\LL	.	.	.	.	.	.	.	.	.
8r	.	.	.	16ccc\	.	.	.	.	.	.	.	.	.
.	.	.	.	16aa\JJ	.	.	.	.	.	.	.	.	.
=3	=3	=3	=3	=3	=3	=3	=3	=3	=3	=3	=3	=3	=3
*	*	*	*	*^	*	*	*	*	*	*	*	*	*
8D\	.	.	1ryy	16gg\LL	2.ryy	.	1ryy	.	.	1ryy	1ryy	1ryy	1ryy	1ryy
.	.	.	.	16ff#\	.	.	.	.	.	.	.	.	.	.
8r	.	.	.	16aa\	.	.	.	.	.	.	.	.	.	.
.	.	.	.	16ff#\JJ	.	.	.	.	.	.	.	.	.	.
8F#\	.	.	.	16ee\LL	.	.	.	.	.	.	.	.	.	.
.	.	.	.	16dd\	.	.	.	.	.	.	.	.	.	.
8r	.	.	.	16aa\	.	.	.	.	.	.	.	.	.	.
.	.	.	.	16cc\JJ	.	.	.	.	.	.	.	.	.	.
8G\L	.	.	.	32b/LLL	.	.	.	.	.	.	.	.	.	.
.	.	.	.	32g/	.	.	.	.	.	.	.	.	.	.
.	.	.	.	32f#/	.	.	.	.	.	.	.	.	.	.
.	.	.	.	32g/JJJ	.	.	.	.	.	.	.	.	.	.
8D\J	.	.	.	8g/	.	.	.	.	.	.	.	.	.	.
8GG/	.	.	.	16r	16ryy	.	.	.	.	.	.	.	.	.
.	.	.	.	16b/LL	16g\LL	.	.	.	.	.	.	.	.	.
8r	.	.	.	16b/	16g\	.	.	.	.	.	.	.	.	.
.	.	.	.	16cc/JJ	16a\JJ	.	.	.	.	.	.	.	.	.
=4	=4	=4	=4	=4	=4	=4	=4	=4	=4	=4	=4	=4	=4	=4
!	!	!	!	!	!LO:LB:g=original	!	!	!	!	!	!	!	!	!
2r	.	.	1ryy	16cc/LL	16a\LL	.	1ryy	.	.	1ryy	1ryy	1ryy	1ryy	1ryy
.	.	.	.	16dd/	16b\	.	.	.	.	.	.	.	.	.
.	.	.	.	16dd/	16b\	.	.	.	.	.	.	.	.	.
.	.	.	.	16ee/JJ	16cc\JJ	.	.	.	.	.	.	.	.	.
.	.	.	.	16ee/LL	16cc\LL	.	.	.	.	.	.	.	.	.
.	.	.	.	16ff#/	16a\	.	.	.	.	.	.	.	.	.
.	.	.	.	16ff#/	16a\	.	.	.	.	.	.	.	.	.
.	.	.	.	16gg/JJ	16b\JJ	.	.	.	.	.	.	.	.	.
8r	.	.	.	4gg/	4b\	.	.	.	.	.	.	.	.	.
8E\L	6\	.	.	.	.	.	.	.	.	.	.	.	.	.
8A\	#	.	.	8.e\L 8.cc#X 8.gg	4ryy	.	.	.	.	.	.	.	.	.
8G\J	_	.	.	.	.	.	.	.	.	.	.	.	.	.
.	.	.	.	16e\Jk 16cc# 16gg	.	.	.	.	.	.	.	.	.	.
*	*	*	*	*v	*v	*	*	*	*	*	*	*	*	*
=5	=5	=5	=5	=5	=5	=5	=5	=5	=5	=5	=5	=5	=5
!	!	!	!	!LO:SIC:o:s=:v:sam numer	!	!	!	!	!	!	!	!	!
8F#\L	6	.	1ryy	24ff#\LL	.	1ryy	00r	.	1ryy	1ryy	1ryy	1ryy	1ryy
.	.	.	.	24ee\	.	.	.	.	.	.	.	.	.
.	.	.	.	24dd\JJ	.	.	.	.	.	.	.	.	.
8D\J	.	.	.	16dd\LL	.	.	.	.	.	.	.	.	.
.	.	.	.	16cccn\J	.	.	.	.	.	.	.	.	.
16r	.	.	.	8ccc\	.	.	.	.	.	.	.	.	.
16D\LL	n7	.	.	.	.	.	.	.	.	.	.	.	.
16E\	.	.	.	8ccc\J	.	.	.	.	.	.	.	.	.
16F#\JJ	.	.	.	.	.	.	.	.	.	.	.	.	.
!LO:LB:g=original	!	!	!	!	!	!	!	!	!	!	!	!	!
!LO:TX:a:t=P:problem=mixedbeam	!	!	!	!LO:SIC:o:s=:v:sam numer	!	!	!	!	!	!	!	!	!
8G\L	.	.	.	24bb\LL	.	.	.	.	.	.	.	.	.
.	.	.	.	24aa\	.	.	.	.	.	.	.	.	.
.	.	.	.	24gg\JJ	.	.	.	.	.	.	.	.	.
8GG/J	.	.	.	8ggg\L	.	.	.	.	.	.	.	.	.
16r	.	.	.	8ggg\	.	.	.	.	.	.	.	.	.
16G\LL	.	.	.	.	.	.	.	.	.	.	.	.	.
16B\	.	.	.	8ggg\J	.	.	.	.	.	.	.	.	.
16A\JJ	.	.	.	.	.	.	.	.	.	.	.	.	.
=6	=6	=6	=6	=6	=6	=6	=6	=6	=6	=6	=6	=6	=6
*	*	*	*	*^	*	*	*	*	*	*	*	*	*
!	!	!	!	!	!	!LO:DY:a	!	!	!	!	!	!	!	!
8G\	.	.	1ryy	16ggg\LL	2ryy	p	1ryy	.	.	1ryy	1ryy	1ryy	1ryy	1ryy
.	.	.	.	16ee\	.	.	.	.	.	.	.	.	.	.
8r	.	.	.	16fff#\	.	.	.	.	.	.	.	.	.	.
.	.	.	.	16dd\JJ	.	.	.	.	.	.	.	.	.	.
4r	.	.	.	16eee\LL	.	.	.	.	.	.	.	.	.	.
.	.	.	.	16cc\	.	.	.	.	.	.	.	.	.	.
.	.	.	.	16ddd\	.	.	.	.	.	.	.	.	.	.
.	.	.	.	16b\JJ	.	.	.	.	.	.	.	.	.	.
8r	.	.	.	16ccc/LL	8a\L	.	.	.	.	.	.	.	.	.
.	.	.	.	16ff#/J	.	.	.	.	.	.	.	.	.	.
8D\L	.	.	.	8ff#/J	8a\J	.	.	.	.	.	.	.	.	.
!	!	!	!	!LO:SIC:o:s=:v:bez oznaczenia&colon;global (wyjątki oznaczone)	!	!	!	!	!	!	!	!	!	!
*	*	*	*	*Xtuplet	*	*	*	*	*	*	*	*	*	*
8d\	.	.	.	24ff#\LL	4ryy	.	.	.	.	.	.	.	.	.
.	.	.	.	24aa\	.	.	.	.	.	.	.	.	.	.
.	.	.	.	24ccc\JJ	.	.	.	.	.	.	.	.	.	.
8c\J	.	.	.	24ccc\LL	.	.	.	.	.	.	.	.	.	.
.	.	.	.	24aa\	.	.	.	.	.	.	.	.	.	.
.	.	.	.	24ff#\JJ	.	.	.	.	.	.	.	.	.	.
*	*	*	*	*v	*v	*	*	*	*	*	*	*	*	*
=7	=7	=7	=7	=7	=7	=7	=7	=7	=7	=7	=7	=7	=7
!	!	!	!	!LO:LB:g=original	!	!	!	!	!	!	!	!	!
!LO:TX:a:t=P:problem=mixedbeam	!	!	!	!	!	!	!	!	!	!	!	!	!
8B\L	.	.	1ryy	24gg\LL	.	1ryy	.	.	1ryy	1ryy	1ryy	1ryy	1ryy
.	.	.	.	24dd\	.	.	.	.	.	.	.	.	.
.	.	.	.	24ffn\JJ	.	.	.	.	.	.	.	.	.
8c\	6 5	.	.	24ee\LL	.	.	.	.	.	.	.	.	.
.	.	.	.	24cc\	.	.	.	.	.	.	.	.	.
.	.	.	.	24a\JJ	.	.	.	.	.	.	.	.	.
8d\	4	.	.	8g/L	.	.	.	.	.	.	.	.	.
8D\J	3	.	.	8a/J	.	.	.	.	.	.	.	.	.
!LO:TX:a:t=P:problem=mixedbeam	!	!	!	!	!	!	!	!	!	!	!	!	!
16GG/LL	.	.	.	4g/	.	.	.	.	.	.	.	.	.
16G\	.	.	.	.	.	.	.	.	.	.	.	.	.
16B\	.	.	.	.	.	.	.	.	.	.	.	.	.
16G\JJ	.	.	.	.	.	.	.	.	.	.	.	.	.
16r	.	.	.	8r	.	.	.	.	.	.	.	.	.
16B\LL	.	.	.	.	.	.	.	.	.	.	.	.	.
16d\	.	.	.	8ffn\	.	.	.	.	.	.	.	.	.
16B\JJ	.	.	.	.	.	.	.	.	.	.	.	.	.
=8	=8	=8	=8	=8	=8	=8	=8	=8	=8	=8	=8	=8	=8
16r	.	.	1ryy	8r	.	1ryy	.	.	1ryy	1ryy	1ryy	1ryy	1ryy
16G\LL	.	.	.	.	.	.	.	.	.	.	.	.	.
16c\	.	.	.	8g\ 8ee	.	.	.	.	.	.	.	.	.
16G\JJ	.	.	.	.	.	.	.	.	.	.	.	.	.
16r	.	.	.	8r	.	.	.	.	.	.	.	.	.
16D\LL	7	.	.	.	.	.	.	.	.	.	.	.	.
16F#\	.	.	.	8f#\ 8dd	.	.	.	.	.	.	.	.	.
16D\JJ	.	.	.	.	.	.	.	.	.	.	.	.	.
!LO:TX:a:t=P:problem=mixedbeam	!	!	!	!	!	!	!	!	!	!	!	!	!
8G\L	.	.	.	8d/L 8b	.	.	.	.	.	.	.	.	.
8GG/J	.	.	.	16B/L 16g	.	.	.	.	.	.	.	.	.
.	.	.	.	16c/JJ 16a	.	.	.	.	.	.	.	.	.
!	!	!	!	!LO:TX:a:t=P:problem=fermaty na kresce taktowej	!	!	!	!	!	!	!	!	!
4GG/	.	.	.	4B/ 4g	.	.	.	.	.	.	.	.	.
=9	=9	=9	=9	=9	=9	=9	=9	=9	=9	=9	=9	=9	=9
!	!	!LO:DY:a	!	!	!	!	!LO:TX:a:rj:t=Solo.	!	!	!	!	!	!
8G\L	.	p	1ryy	00r	.	1ryy	4.G\	Ro-	1ryy	1ryy	1ryy	1ryy	1ryy
8A\	.	.	.	.	.	.	.	.	.	.	.	.	.
8B\	6	.	.	.	.	.	.	.	.	.	.	.	.
8G\J	.	.	.	.	.	.	16B\LL	-sa	.	.	.	.	.
.	.	.	.	.	.	.	16A\JJ	.	.	.	.	.	.
8D\L	.	.	.	.	.	.	16d\	miſ-	.	.	.	.	.
.	.	.	.	.	.	.	16D\	-ti-	.	.	.	.	.
8E\	.	.	.	.	.	.	8D\	-ca	.	.	.	.	.
8F#\J	6	.	.	.	.	.	8r	.	.	.	.	.	.
*	*	*	*	*	*	*	*Xtuplet	*	*	*	*	*	*
8r	.	.	.	.	.	.	24D\LL	Tu-	.	.	.	.	.
.	.	.	.	.	.	.	24c\	.	.	.	.	.	.
.	.	.	.	.	.	.	24A\JJ	.	.	.	.	.	.
=10	=10	=10	=10	=10	=10	=10	=10	=10	=10	=10	=10	=10	=10
8D\	.	.	1ryy	.	.	1ryy	16G\LL	-ris	1ryy	1ryy	1ryy	1ryy	1ryy
.	.	.	.	.	.	.	16F#\JJ	.	.	.	.	.	.
*	*	*	*	*	*	*	*	*ij	*	*	*	*	*
8r	.	.	.	.	.	.	16A\LL	tur-	.	.	.	.	.
.	.	.	.	.	.	.	16F#\JJ	.	.	.	.	.	.
8F#\	6	.	.	.	.	.	16E\LL	-ris	.	.	.	.	.
*	*	*	*	*	*	*	*	*Xij	*	*	*	*	*
.	.	.	.	.	.	.	16D\JJ	.	.	.	.	.	.
8r	.	.	.	.	.	.	16A\LL	Da-	.	.	.	.	.
.	.	.	.	.	.	.	16C\JJ	.	.	.	.	.	.
!LO:LB:g=original	!	!	!	!	!	!	!	!	!	!	!	!	!
!LO:TX:a:t=P:problem=mixedbeam	!	!	!	!	!	!	!	!	!	!	!	!	!
16GG/LL	.	.	.	.	.	.	16BB/	-vi-	.	.	.	.	.
16G\	.	.	.	.	.	.	16C/	-di-	.	.	.	.	.
!	!	!	!	!	!	!	!LO:N:vis=16	!	!	!	!	!	!
16F#\	6	.	.	.	.	.	8D/	-ca	.	.	.	.	.
16E\JJ	.	.	.	.	.	.	.	.	.	.	.	.	.
8F#\	.	.	.	.	.	.	8r	.	.	.	.	.	.
8r	.	.	.	.	.	.	24D\LL	tur-	.	.	.	.	.
.	.	.	.	.	.	.	24c\	.	.	.	.	.	.
.	.	.	.	.	.	.	24A\JJ	.	.	.	.	.	.
=11	=11	=11	=11	=11	=11	=11	=11	=11	=11	=11	=11	=11	=11
8D\	.	.	1ryy	.	.	1ryy	16G\LL	-ris	1ryy	1ryy	1ryy	1ryy	1ryy
.	.	.	.	.	.	.	16F#\JJ	.	.	.	.	.	.
8r	.	.	.	.	.	.	16A\LL	tur-	.	.	.	.	.
.	.	.	.	.	.	.	16F#\JJ	.	.	.	.	.	.
!	!	!	!	!	!	!	!LO:LB:g=original	!	!	!	!	!	!
8F#\	6	.	.	.	.	.	16E\LL	-ris	.	.	.	.	.
.	.	.	.	.	.	.	16D\JJ	.	.	.	.	.	.
8r	.	.	.	.	.	.	16A\LL	E-	.	.	.	.	.
.	.	.	.	.	.	.	16C\JJ	.	.	.	.	.	.
!LO:TX:a:t=P:problem=mixedbeam	!	!	!	!	!	!	!	!	!	!	!	!	!
8G\L	.	.	.	.	.	.	16BB/	-bur-	.	.	.	.	.
.	.	.	.	.	.	.	16AA/	-ne-	.	.	.	.	.
8D\	.	.	.	.	.	.	8GG/	-a	.	.	.	.	.
8GG/	.	.	.	.	.	.	8r	.	.	.	.	.	.
8G\J	.	.	.	.	.	.	8G\	o-	.	.	.	.	.
=12	=12	=12	=12	=12	=12	=12	=12	=12	=12	=12	=12	=12	=12
!LO:TX:a:t=P:problem=mixedbeam	!	!	!	!	!	!	!	!	!	!	!	!	!
8F#\L	.	.	1ryy	.	.	1ryy	16A\LL	-ra	1ryy	1ryy	1ryy	1ryy	1ryy
.	.	.	.	.	.	.	16d\JJ	.	.	.	.	.	.
8D\	.	.	.	.	.	.	16F#\LL	pro	.	.	.	.	.
.	.	.	.	.	.	.	16A\JJ	.	.	.	.	.	.
8E\	7	.	.	.	.	.	4G\	no-	.	.	.	.	.
8AA/J	.	.	.	.	.	.	.	.	.	.	.	.	.
8D\L	.	.	.	.	.	.	4F#\	-bis	.	.	.	.	.
8E\	.	.	.	.	.	.	.	.	.	.	.	.	.
8F#\	6	.	.	.	.	.	8r	.	.	.	.	.	.
8D\J	.	.	.	.	.	.	8F#\	o-	.	.	.	.	.
=13	=13	=13	=13	=13	=13	=13	=13	=13	=13	=13	=13	=13	=13
*2\right	*	*	*	*	*	*	*	*	*	*	*	*	*
*tremolo	*	*	*	*	*	*	*	*	*	*	*	*	*
16G\L	6 5	.	1ryy	2r	.	1ryy	16E\LL	-ra	1ryy	1ryy	1ryy	1ryy	1ryy
16G	.	.	.	.	.	.	16F#\JJ	.	.	.	.	.	.
16G	.	.	.	.	.	.	16G\LL	pro	.	.	.	.	.
16G	.	.	.	.	.	.	16A\JJ	.	.	.	.	.	.
16G	.	.	.	.	.	.	24B\LL	no-	.	.	.	.	.
.	.	.	.	.	.	.	24A\	.	.	.	.	.	.
16G	.	.	.	.	.	.	.	.	.	.	.	.	.
.	.	.	.	.	.	.	24G\JJ	.	.	.	.	.	.
16G	.	.	.	.	.	.	24F#\LL	.	.	.	.	.	.
.	.	.	.	.	.	.	24E\	.	.	.	.	.	.
16GJ	.	.	.	.	.	.	.	.	.	.	.	.	.
.	.	.	.	.	.	.	24D\JJ	.	.	.	.	.	.
*Xtremolo	*	*	*	*	*	*	*	*	*	*	*	*	*
!LO:TX:a:t=P:problem=mixedbeam	!	!	!	!	!	!	!	!	!	!	!	!	!
8A\L	#	.	.	8r	.	.	8A\	.	.	.	.	.	.
8AA/J	.	.	.	16r	.	.	8AA/	-bis	.	.	.	.	.
.	.	.	.	16aa\	.	.	.	.	.	.	.	.	.
4r	.	.	.	16gg#X\LL	.	.	4r	.	.	.	.	.	.
.	.	.	.	16aa\	.	.	.	.	.	.	.	.	.
.	.	.	.	16gg#\	.	.	.	.	.	.	.	.	.
.	.	.	.	16aa\JJ	.	.	.	.	.	.	.	.	.
=14	=14	=14	=14	=14	=14	=14	=14	=14	=14	=14	=14	=14	=14
!	!	!	!	!	!	!	!	!LO:LB:g=original	!	!	!	!	!
*	*	*	*	*^	*	*	*	*	*	*	*	*	*
16r	.	.	1ryy	8A/	2ryy	.	1ryy	16r	.	1ryy	1ryy	1ryy	1ryy	1ryy
16C\LL	3	.	.	.	.	.	.	16E\LL	Do-	.	.	.	.	.
16D\	3	.	.	8r	.	.	.	16F#\JJ	.	.	.	.	.	.
16E\JJ	3	.	.	.	.	.	.	16G\	-mus	.	.	.	.	.
16D\LL	3	.	.	8d/	.	.	.	16F#\	Au-	.	.	.	.	.
16F#\J	3	.	.	.	.	.	.	16A\	-re-	.	.	.	.	.
8F#\J	3	.	.	8r	.	.	.	8A\	-a	.	.	.	.	.
8AA/	#	.	.	2ccc/	16aa\LL	.	.	16r	.	.	.	.	.	.
.	.	.	.	.	16ee\	.	.	16C#X\	fe-	.	.	.	.	.
8r	.	.	.	.	16ff#\	.	.	16D\	-de-	.	.	.	.	.
.	.	.	.	.	16gg\JJ	.	.	16E\	-ris	.	.	.	.	.
8D/	.	.	.	.	16ff#\LL	.	.	16D\LL	ar-	.	.	.	.	.
.	.	.	.	.	16aa\J	.	.	16F#\JJ	.	.	.	.	.	.
8r	.	.	.	.	8aa\J	.	.	8F#\	-ca	.	.	.	.	.
*	*	*	*	*v	*v	*	*	*	*	*	*	*	*	*
=15	=15	=15	=15	=15	=15	=15	=15	=15	=15	=15	=15	=15	=15
8G\	3	.	1ryy	24bb\LL	.	1ryy	8G\	o-	1ryy	1ryy	1ryy	1ryy	1ryy
.	.	.	.	24dd\	.	.	.	.	.	.	.	.	.
.	.	.	.	24bb\JJ	.	.	.	.	.	.	.	.	.
8r	.	.	.	24bb\LL	.	.	8r	.	.	.	.	.	.
.	.	.	.	24ccc#X\	.	.	.	.	.	.	.	.	.
.	.	.	.	24ddd\JJ	.	.	.	.	.	.	.	.	.
!	!	!	!	!LO:LB:g=original	!	!	!	!	!	!	!	!	!
8A\	3	.	.	24ccc#\LL	.	.	8A\	.	.	.	.	.	.
.	.	.	.	24ee\	.	.	.	.	.	.	.	.	.
.	.	.	.	24ccc#\JJ	.	.	.	.	.	.	.	.	.
8r	.	.	.	24ccc#\LL	.	.	8r	.	.	.	.	.	.
.	.	.	.	24ddd\	.	.	.	.	.	.	.	.	.
.	.	.	.	24eee\JJ	.	.	.	.	.	.	.	.	.
8B\	3	.	.	24ddd\LL	.	.	8B\	.	.	.	.	.	.
.	.	.	.	24ff#\	.	.	.	.	.	.	.	.	.
.	.	.	.	24ddd\JJ	.	.	.	.	.	.	.	.	.
8r	.	.	.	24ddd\LL	.	.	8r	.	.	.	.	.	.
.	.	.	.	24eee\	.	.	.	.	.	.	.	.	.
.	.	.	.	24fff#\JJ	.	.	.	.	.	.	.	.	.
8c#X\	3	.	.	24eee\LL	.	.	8c\	.	.	.	.	.	.
.	.	.	.	24gg\	.	.	.	.	.	.	.	.	.
.	.	.	.	24eee\JJ	.	.	.	.	.	.	.	.	.
8r	.	.	.	24eee\LL	.	.	8r	.	.	.	.	.	.
.	.	.	.	24fff#\	.	.	.	.	.	.	.	.	.
.	.	.	.	24ggg\JJ	.	.	.	.	.	.	.	.	.
=16	=16	=16	=16	=16	=16	=16	=16	=16	=16	=16	=16	=16	=16
!LO:LB:g=original	!	!	!	!	!	!	!	!	!	!	!	!	!
*	*	*	*	*^	*	*	*	*	*	*	*	*	*
8d\	.	.	1ryy	8fff#\	2.ryy	.	1ryy	8d\	-ra	1ryy	1ryy	1ryy	1ryy	1ryy
*	*	*	*	*	*	*	*	*	*ij	*	*	*	*	*
8r	.	.	.	8r	.	.	.	8A\	o-	.	.	.	.	.
4r	.	.	.	4r	.	.	.	8A\	-ra	.	.	.	.	.
*	*	*	*	*	*	*	*	*	*Xij	*	*	*	*	*
.	.	.	.	.	.	.	.	8A\	pro	.	.	.	.	.
*	*	*	*	*	*	*	*	*2\right	*	*	*	*	*	*
8D/	.	.	.	16r	.	.	.	2A\	no-	.	.	.	.	.
.	.	.	.	16ff#\LL 16aa	.	.	.	.	.	.	.	.	.	.
8r	.	.	.	16ff#\ 16aa	.	.	.	.	.	.	.	.	.	.
.	.	.	.	16ff#\JJ 16aa	.	.	.	.	.	.	.	.	.	.
8AA/	.	.	.	16gg/LL	16ee\LL	.	.	.	.	.	.	.	.	.
.	.	.	.	16ee/	16cc\	.	.	.	.	.	.	.	.	.
8r	.	.	.	16cc/	16a\	.	.	.	.	.	.	.	.	.
.	.	.	.	16cc/JJ	16a\JJ	.	.	.	.	.	.	.	.	.
=17	=17	=17	=17	=17	=17	=17	=17	=17	=17	=17	=17	=17	=17	=17
8D/	.	.	1ryy	16dd/	16f#\	.	1ryy	2A\	.	1ryy	1ryy	1ryy	1ryy	1ryy
.	.	.	.	16aa/LL	16ff#\LL	.	.	.	.	.	.	.	.	.
8r	.	.	.	16ddd/	16ff#\	.	.	.	.	.	.	.	.	.
.	.	.	.	16aa/JJ	16ff#\JJ	.	.	.	.	.	.	.	.	.
8AA/	.	.	.	16gg/LL	16ee\LL	.	.	.	.	.	.	.	.	.
.	.	.	.	16ee/	16cc#X\	.	.	.	.	.	.	.	.	.
8r	.	.	.	16cc#/	16a\	.	.	.	.	.	.	.	.	.
.	.	.	.	16cc#/JJ	16a\JJ	.	.	.	.	.	.	.	.	.
8D\L	.	.	.	8dd/	8f#\	.	.	8A\	-bis	.	.	.	.	.
!	!	!	!	!	!	!	!	!LO:LB:g=original	!	!	!	!	!	!
8F#\	6	.	.	8r	8ryy	.	.	16d\LL	o-	.	.	.	.	.
.	.	.	.	.	.	.	.	16c#X\JJ	.	.	.	.	.	.
8G\	6	.	.	4r	4ryy	.	.	16B\LL	.	.	.	.	.	.
.	.	.	.	.	.	.	.	16A\	.	.	.	.	.	.
8G#X\J	5	.	.	.	.	.	.	16G\	.	.	.	.	.	.
.	.	.	.	.	.	.	.	16F#\JJ	.	.	.	.	.	.
*	*	*	*	*v	*v	*	*	*	*	*	*	*	*	*
=18	=18	=18	=18	=18	=18	=18	=18	=18	=18	=18	=18	=18	=18
8A\L	.	.	1ryy	1r	.	1ryy	16E\LL	.	1ryy	1ryy	1ryy	1ryy	1ryy
.	.	.	.	.	.	.	16D\	.	.	.	.	.	.
8B\J	.	.	.	.	.	.	16C#X\	.	.	.	.	.	.
.	.	.	.	.	.	.	16BB\JJ	.	.	.	.	.	.
8c#X\L	6	.	.	.	.	.	8AA/	-ra	.	.	.	.	.
16B\L	.	.	.	.	.	.	8e#X\	o-	.	.	.	.	.
16A\JJ	.	.	.	.	.	.	.	.	.	.	.	.	.
!LO:TX:a:t=P:problem=mixedbeam	!	!	!	!	!	!	!	!	!	!	!	!	!
8F#\L	6	.	.	.	.	.	8f#\	-ra	.	.	.	.	.
8G\	6 5	.	.	.	.	.	24B\LL	pro	.	.	.	.	.
.	.	.	.	.	.	.	24A\	.	.	.	.	.	.
.	.	.	.	.	.	.	24G\JJ	.	.	.	.	.	.
8A\	4	.	.	.	.	.	8F#\L	no-	.	.	.	.	.
8AA/J	#	.	.	.	.	.	8E\J	.	.	.	.	.	.
=19	=19	=19	=19	=19	=19	=19	=19	=19	=19	=19	=19	=19	=19
!	!	!	!	!LO:LB:g=original	!	!	!	!	!	!	!	!	!
!	!	!	!	!LO:TX:a:t=P:problem=mixedbeam	!	!	!	!	!	!	!	!	!
8D\L	.	f	1ryy	8dd\L	.	1ryy	4D\	-bis	1ryy	1ryy	1ryy	1ryy	1ryy
8E\	.	.	.	8d/J	.	.	.	.	.	.	.	.	.
8F#\	6	.	.	16r	.	.	4r	.	.	.	.	.	.
.	.	.	.	16dd\LL	.	.	.	.	.	.	.	.	.
8D\J	.	.	.	16ff#\	.	.	.	.	.	.	.	.	.
.	.	.	.	16dd\JJ	.	.	.	.	.	.	.	.	.
8AA/L	#	.	.	8ee\L	.	.	2r	.	.	.	.	.	.
8BB/	.	.	.	8a\J	.	.	.	.	.	.	.	.	.
8C#X/J	6	.	.	16r	.	.	.	.	.	.	.	.	.
.	.	.	.	16a\LL	.	.	.	.	.	.	.	.	.
8r	.	.	.	16gg\	.	.	.	.	.	.	.	.	.
.	.	.	.	16ee\JJ	.	.	.	.	.	.	.	.	.
=20	=20	=20	=20	=20	=20	=20	=20	=20	=20	=20	=20	=20	=20
8AA/	.	.	1ryy	16dd\LL	.	1ryy	00r	.	1ryy	1ryy	1ryy	1ryy	1ryy
.	.	.	.	16cc#X\	.	.	.	.	.	.	.	.	.
!	!	!	!	!LO:SIC:o:s=:v:klamra łukowa, haczyk zamiast numeru	!	!	!	!	!	!	!	!	!
*	*	*	*	*tuplet	*	*	*	*	*	*	*	*	*
8r	.	.	.	24ee\	.	.	.	.	.	.	.	.	.
.	.	.	.	24dd\	.	.	.	.	.	.	.	.	.
.	.	.	.	24cc#\JJ	.	.	.	.	.	.	.	.	.
8C#X/	6	.	.	16b/LL	.	.	.	.	.	.	.	.	.
.	.	.	.	16a/	.	.	.	.	.	.	.	.	.
8r	.	.	.	16ee/	.	.	.	.	.	.	.	.	.
.	.	.	.	16g/JJ	.	.	.	.	.	.	.	.	.
*	*	*	*	*Xtuplet	*	*	*	*	*	*	*	*	*
16D\LL	.	.	.	24f#/LL	.	.	.	.	.	.	.	.	.
.	.	.	.	24g/	.	.	.	.	.	.	.	.	.
16d\	.	.	.	.	.	.	.	.	.	.	.	.	.
.	.	.	.	24a/J	.	.	.	.	.	.	.	.	.
16c#X\	6	.	.	8a/J	.	.	.	.	.	.	.	.	.
16B\JJ	.	.	.	.	.	.	.	.	.	.	.	.	.
8c#\	.	.	.	16r	.	.	.	.	.	.	.	.	.
.	.	.	.	16a\LL	.	.	.	.	.	.	.	.	.
8r	.	.	.	16gg\	.	.	.	.	.	.	.	.	.
.	.	.	.	16ee\JJ	.	.	.	.	.	.	.	.	.
=21	=21	=21	=21	=21	=21	=21	=21	=21	=21	=21	=21	=21	=21
!LO:LB:g=original	!	!	!	!	!	!	!	!	!	!	!	!	!
8A\	.	.	1ryy	16dd\LL	.	1ryy	.	.	1ryy	1ryy	1ryy	1ryy	1ryy
.	.	.	.	16cc#X\	.	.	.	.	.	.	.	.	.
8r	.	.	.	16ee\	.	.	.	.	.	.	.	.	.
.	.	.	.	16cc#\JJ	.	.	.	.	.	.	.	.	.
8c\	.	.	.	16b\LL	.	.	.	.	.	.	.	.	.
.	.	.	.	16a\	.	.	.	.	.	.	.	.	.
8r	.	.	.	16ee\	.	.	.	.	.	.	.	.	.
.	.	.	.	16g\JJ	.	.	.	.	.	.	.	.	.
8d\L	.	.	.	32f#/LLL	.	.	.	.	.	.	.	.	.
.	.	.	.	32d/	.	.	.	.	.	.	.	.	.
.	.	.	.	32c#X/	.	.	.	.	.	.	.	.	.
.	.	.	.	32e/JJJ	.	.	.	.	.	.	.	.	.
8A\	.	.	.	8d/	.	.	.	.	.	.	.	.	.
8D\J	.	.	.	16r	.	.	.	.	.	.	.	.	.
!	!	!	!	!LO:TX:a:t=P:problem=mixedbeam	!	!	!	!	!	!	!	!	!
.	.	.	.	16aa\LL	.	.	.	.	.	.	.	.	.
8r	.	.	.	16d/	.	.	.	.	.	.	.	.	.
.	.	.	.	16ccn\JJ	.	.	.	.	.	.	.	.	.
=22	=22	=22	=22	=22	=22	=22	=22	=22	=22	=22	=22	=22	=22
*	*	*	*	*^	*	*	*	*	*	*	*	*	*
8G\L	.	.	1ryy	32cc\LLL	4ryy	.	1ryy	.	.	1ryy	1ryy	1ryy	1ryy	1ryy
.	.	.	.	32b\	.	.	.	.	.	.	.	.	.	.
.	.	.	.	32ee\	.	.	.	.	.	.	.	.	.	.
.	.	.	.	32dd\JJJ	.	.	.	.	.	.	.	.	.	.
8B\J	.	.	.	8dd\	.	.	.	.	.	.	.	.	.	.
!	!	!	!	!LO:LB:g=original	!	!	!	!	!	!	!	!	!	!
16r	.	.	.	2d/	16d\LL	.	.	.	.	.	.	.	.	.
16F#\LL	3	.	.	.	16A\	.	.	.	.	.	.	.	.	.
16G\	3	.	.	.	16Bn\	.	.	.	.	.	.	.	.	.
16A\JJ	n3	.	.	.	16c\JJ	.	.	.	.	.	.	.	.	.
8A\L	n	.	.	.	8c/L	.	.	.	.	.	.	.	.	.
16G\L	3	.	.	.	8B/J	.	.	.	.	.	.	.	.	.
16F#\JJ	6\	.	.	.	.	.	.	.	.	.	.	.	.	.
8E\	.	.	.	16r	4ryy	.	.	.	.	.	.	.	.	.
!	!	!	!	!LO:TX:a:t=P:problem=mixedbeam	!	!	!	!	!	!	!	!	!	!
.	.	.	.	16bb\LL	.	.	.	.	.	.	.	.	.	.
8r	.	.	.	16e/	.	.	.	.	.	.	.	.	.	.
.	.	.	.	16dd\JJ	.	.	.	.	.	.	.	.	.	.
=23	=23	=23	=23	=23	=23	=23	=23	=23	=23	=23	=23	=23	=23	=23
8A\L	.	.	1ryy	32dd\LLL	4ryy	.	1ryy	.	.	1ryy	1ryy	1ryy	1ryy	1ryy
.	.	.	.	32cc#X\	.	.	.	.	.	.	.	.	.	.
.	.	.	.	32ff#\	.	.	.	.	.	.	.	.	.	.
.	.	.	.	32ee\JJ	.	.	.	.	.	.	.	.	.	.
8c#X\J	.	.	.	8ee\J	.	.	.	.	.	.	.	.	.	.
16r	.	.	.	2e/	16e\LL	.	.	.	.	.	.	.	.	.
16G#X\LL	3	.	.	.	16B\	.	.	.	.	.	.	.	.	.
16A\	3	.	.	.	16c\	.	.	.	.	.	.	.	.	.
16B\JJ	3	.	.	.	16d\JJ	.	.	.	.	.	.	.	.	.
8B\L	3	.	.	.	8d/L	.	.	.	.	.	.	.	.	.
8A\J	3	.	.	.	8c/J	.	.	.	.	.	.	.	.	.
8AA/	#	.	.	16eee\LL	4ryy	.	.	.	.	.	.	.	.	.
.	.	.	.	16ccc#X\	.	.	.	.	.	.	.	.	.	.
8r	.	.	.	16aa\	.	.	.	.	.	.	.	.	.	.
.	.	.	.	16aa\JJ	.	.	.	.	.	.	.	.	.	.
=24	=24	=24	=24	=24	=24	=24	=24	=24	=24	=24	=24	=24	=24	=24
8D\L	.	.	1ryy	8ff#\L	4ryy	.	1ryy	00r	.	1ryy	1ryy	1ryy	1ryy	1ryy
8d\J	.	.	.	16bb\L	.	.	.	.	.	.	.	.	.	.
.	.	.	.	16aa\JJ	.	.	.	.	.	.	.	.	.	.
16r	.	.	.	4aa/	16aa\LL	.	.	.	.	.	.	.	.	.
16c#X\LL	3	.	.	.	16ee\	.	.	.	.	.	.	.	.	.
16d\	3	.	.	.	16ff#\	.	.	.	.	.	.	.	.	.
16e\JJ	3	.	.	.	16gg\JJ	.	.	.	.	.	.	.	.	.
4d\	.	.	.	16ff#\LL	4ryy	.	.	.	.	.	.	.	.	.
.	.	.	.	32bb\L	.	.	.	.	.	.	.	.	.	.
.	.	.	.	32aa\JJJ	.	.	.	.	.	.	.	.	.	.
.	.	.	.	8aa\	.	.	.	.	.	.	.	.	.	.
16r	.	.	.	4aa/	16aa\LL	.	.	.	.	.	.	.	.	.
16c#X\LL	3	.	.	.	16ee\	.	.	.	.	.	.	.	.	.
16d\	3	.	.	.	16ff#\	.	.	.	.	.	.	.	.	.
16e\JJ	3	.	.	.	16gg\JJ	.	.	.	.	.	.	.	.	.
*	*	*	*	*v	*v	*	*	*	*	*	*	*	*	*
=25	=25	=25	=25	=25	=25	=25	=25	=25	=25	=25	=25	=25	=25
!LO:TX:a:t=P:problem=mixedbeam	!	!	!	!	!	!	!	!	!	!	!	!	!
8d\L	.	.	1ryy	24ff#\LL	.	1ryy	.	.	1ryy	1ryy	1ryy	1ryy	1ryy
.	.	.	.	24aa\	.	.	.	.	.	.	.	.	.
.	.	.	.	24ddd\JJ	.	.	.	.	.	.	.	.	.
8G\	6 5	.	.	24bb\LL	.	.	.	.	.	.	.	.	.
.	.	.	.	24gg\	.	.	.	.	.	.	.	.	.
.	.	.	.	24ee\JJ	.	.	.	.	.	.	.	.	.
!	!	!	!	!LO:LB:g=original	!	!	!	!	!	!	!	!	!
8A\	4	.	.	4ee\	.	.	.	.	.	.	.	.	.
8AA/J	3	.	.	.	.	.	.	.	.	.	.	.	.
8D/L	.	.	.	4dd\	.	.	.	.	.	.	.	.	.
8AA/	.	.	.	.	.	.	.	.	.	.	.	.	.
8DD/J	.	.	.	16A/LL	.	.	.	.	.	.	.	.	.
.	.	.	.	16e/	.	.	.	.	.	.	.	.	.
8r	.	.	.	16A/ 16f#	.	.	.	.	.	.	.	.	.
.	.	.	.	16g/JJ	.	.	.	.	.	.	.	.	.
=26	=26	=26	=26	=26	=26	=26	=26	=26	=26	=26	=26	=26	=26
!LO:PB:g=original	!	!	!	!	!	!	!	!	!	!	!	!	!
*	*	*	*	*^	*	*	*	*	*	*	*	*	*
!	!	!LO:DY:a	!	!	!	!	!	!	!	!	!	!	!	!
4D\	.	p	1ryy	24f#/LL	4ryy	.	1ryy	.	.	1ryy	1ryy	1ryy	1ryy	1ryy
.	.	.	.	24b/	.	.	.	.	.	.	.	.	.	.
.	.	.	.	24a/JJ	.	.	.	.	.	.	.	.	.	.
.	.	.	.	8a/	.	.	.	.	.	.	.	.	.	.
16r	.	.	.	4a/	16a\LL	.	.	.	.	.	.	.	.	.
16C#X\LL	.	.	.	.	16e\	.	.	.	.	.	.	.	.	.
16D\	.	.	.	.	16f#\	.	.	.	.	.	.	.	.	.
16E\JJ	.	.	.	.	16g\JJ	.	.	.	.	.	.	.	.	.
4D\	.	.	.	16f#/LL	2ryy	.	.	.	.	.	.	.	.	.
.	.	.	.	32b/L	.	.	.	.	.	.	.	.	.	.
.	.	.	.	32a/JJ	.	.	.	.	.	.	.	.	.	.
.	.	.	.	8a/J	.	.	.	.	.	.	.	.	.	.
16r	.	.	.	16r	.	.	.	.	.	.	.	.	.	.
16C#\LL	.	.	.	16e/LL	.	.	.	.	.	.	.	.	.	.
16D\	.	.	.	16f#/	.	.	.	.	.	.	.	.	.	.
16E\JJ	.	.	.	16g/JJ	.	.	.	.	.	.	.	.	.	.
=27	=27	=27	=27	=27	=27	=27	=27	=27	=27	=27	=27	=27	=27	=27
4D\	.	.	1ryy	16a/LL	16f#\LL	.	1ryy	.	.	1ryy	1ryy	1ryy	1ryy	1ryy
.	.	.	.	16a/	16f#\	.	.	.	.	.	.	.	.	.
.	.	.	.	16b/	16g\	.	.	.	.	.	.	.	.	.
.	.	.	.	16cc#X/JJ	16a\JJ	.	.	.	.	.	.	.	.	.
4r	.	.	.	16dd/LL	16b\LL	.	.	.	.	.	.	.	.	.
.	.	.	.	16ee/	16cc#X\	.	.	.	.	.	.	.	.	.
.	.	.	.	16ff#/	16dd\	.	.	.	.	.	.	.	.	.
.	.	.	.	16gg/JJ	16ee\JJ	.	.	.	.	.	.	.	.	.
4r	.	.	.	8aa/L	8ff#\L	.	.	.	.	.	.	.	.	.
.	.	.	.	8ddd/J	8ff#\J	.	.	.	.	.	.	.	.	.
8r	.	.	.	8ddd/	8ff#\	.	.	.	.	.	.	.	.	.
!	!	!LO:DY:a	!	!	!	!	!	!	!	!	!	!	!	!
8F#\	.	f	.	8r	8ryy	.	.	.	.	.	.	.	.	.
*	*	*	*	*v	*v	*	*	*	*	*	*	*	*	*
=28	=28	=28	=28	=28	=28	=28	=28	=28	=28	=28	=28	=28	=28
!LO:TX:a:t=P:problem=mixedbeam	!	!	!	!	!	!	!	!	!	!	!	!	!
8G\L	6 5	.	1ryy	32dd#X\LLL	.	1ryy	0r	.	1ryy	1ryy	1ryy	1ryy	1ryy
.	.	.	.	32ee\	.	.	.	.	.	.	.	.	.
.	.	.	.	32gg\	.	.	.	.	.	.	.	.	.
.	.	.	.	32bb\JJJ	.	.	.	.	.	.	.	.	.
8G\	.	.	.	32aa\LLL	.	.	.	.	.	.	.	.	.
.	.	.	.	32gg\	.	.	.	.	.	.	.	.	.
.	.	.	.	32ff#\	.	.	.	.	.	.	.	.	.
.	.	.	.	32ee\JJJ	.	.	.	.	.	.	.	.	.
8A\	4	.	.	4ee\	.	.	.	.	.	.	.	.	.
8AA/J	#	.	.	.	.	.	.	.	.	.	.	.	.
16D\LL	.	.	.	8dd#\	.	.	.	.	.	.	.	.	.
16D\	.	.	.	.	.	.	.	.	.	.	.	.	.
16F#\	6	.	.	8r	.	.	.	.	.	.	.	.	.
16D\JJ	.	.	.	.	.	.	.	.	.	.	.	.	.
!	!	!	!	!LO:LB:g=original	!	!	!	!	!	!	!	!	!
16r	.	.	.	8d/ 8ccn	.	.	.	.	.	.	.	.	.
16F#\LL	.	.	.	.	.	.	.	.	.	.	.	.	.
16A\	.	.	.	8r	.	.	.	.	.	.	.	.	.
16F#\JJ	.	.	.	.	.	.	.	.	.	.	.	.	.
=29	=29	=29	=29	=29	=29	=29	=29	=29	=29	=29	=29	=29	=29
*	*	*	*	*^	*	*	*	*	*	*	*	*	*
16r	.	.	1ryy	8d/ 8b	2ryy	.	1ryy	.	.	1ryy	1ryy	1ryy	1ryy	1ryy
16D\LL	.	.	.	.	.	.	.	.	.	.	.	.	.	.
16G\	.	.	.	8r	.	.	.	.	.	.	.	.	.	.
16D\JJ	.	.	.	.	.	.	.	.	.	.	.	.	.	.
16r	.	.	.	8cc#X\ 8gg	.	.	.	.	.	.	.	.	.	.
16AA/LL	#	.	.	.	.	.	.	.	.	.	.	.	.	.
16C#X/	.	.	.	8r	.	.	.	.	.	.	.	.	.	.
16AA/JJ	.	.	.	.	.	.	.	.	.	.	.	.	.	.
8D\L	.	.	.	8ff#/L	8a\L	.	.	.	.	.	.	.	.	.
8D\J	.	.	.	16.dd/L	16.f#\L	.	.	.	.	.	.	.	.	.
.	.	.	.	32ee/JJk	32g\JJk	.	.	.	.	.	.	.	.	.
4D\	.	.	.	4dd/	4f#\	.	.	.	.	.	.	.	.	.
*	*	*	*	*v	*v	*	*	*	*	*	*	*	*	*
=30	=30	=30	=30	=30	=30	=30	=30	=30	=30	=30	=30	=30	=30
!	!	!LO:DY:a	!	!LO:TX:a:t=6	!	!	!	!	!	!	!	!	!
8D\L	.	p	1ryy	00r	.	1ryy	4.D\	Ro-	1ryy	1ryy	1ryy	1ryy	1ryy
8E\	.	.	.	.	.	.	.	.	.	.	.	.	.
8F#\	6	.	.	.	.	.	.	.	.	.	.	.	.
8D\J	.	.	.	.	.	.	16F#\LL	-sa	.	.	.	.	.
.	.	.	.	.	.	.	16D\JJ	.	.	.	.	.	.
8A\L	.	.	.	.	.	.	16A\	mis-	.	.	.	.	.
.	.	.	.	.	.	.	16AA/	-ti-	.	.	.	.	.
!	!	!	!	!	!	!	!LO:LB:g=original	!	!	!	!	!	!
8B\	.	.	.	.	.	.	8AA/	-ca	.	.	.	.	.
8c#X\J	.	.	.	.	.	.	16r	.	.	.	.	.	.
!	!	!	!	!	!	!	!LO:TX:a:t=P:problem=mixedbeam	!	!	!	!	!	!
.	.	.	.	.	.	.	16AA/LL	Tur-	.	.	.	.	.
8r	.	.	.	.	.	.	16G\	.	.	.	.	.	.
.	.	.	.	.	.	.	16E\JJ	.	.	.	.	.	.
=31	=31	=31	=31	=31	=31	=31	=31	=31	=31	=31	=31	=31	=31
!LO:LB:g=original	!	!	!	!	!	!	!	!	!	!	!	!	!
8A\	.	.	1ryy	.	.	1ryy	16D\LL	-ris	1ryy	1ryy	1ryy	1ryy	1ryy
.	.	.	.	.	.	.	16C\JJ	.	.	.	.	.	.
*	*	*	*	*	*	*	*	*ij	*	*	*	*	*
8r	.	.	.	.	.	.	16E\LL	tur-	.	.	.	.	.
.	.	.	.	.	.	.	16C\JJ	.	.	.	.	.	.
8c#X\	6	.	.	.	.	.	16AA/LL	-ris	.	.	.	.	.
.	5	.	.	.	.	.	16GG/JJ	.	.	.	.	.	.
*	*	*	*	*	*	*	*	*Xij	*	*	*	*	*
8r	.	.	.	.	.	.	16E\LL	Da-	.	.	.	.	.
.	.	.	.	.	.	.	16G\JJ	.	.	.	.	.	.
8d\L	.	.	.	.	.	.	16F#\	-vi-	.	.	.	.	.
.	.	.	.	.	.	.	16G\	-di-	.	.	.	.	.
16c#\L	6	.	.	.	.	.	8A\	-ca	.	.	.	.	.
16B\JJ	.	.	.	.	.	.	.	.	.	.	.	.	.
8c#\	.	.	.	.	.	.	16r	.	.	.	.	.	.
!	!	!	!	!	!	!	!LO:TX:a:t=P:problem=mixedbeam	!	!	!	!	!	!
.	.	.	.	.	.	.	16AA/LL	Tur-	.	.	.	.	.
8r	.	.	.	.	.	.	16G\	.	.	.	.	.	.
.	.	.	.	.	.	.	16E\JJ	.	.	.	.	.	.
=32	=32	=32	=32	=32	=32	=32	=32	=32	=32	=32	=32	=32	=32
8A\	#	.	1ryy	.	.	1ryy	16D\LL	-ris	1ryy	1ryy	1ryy	1ryy	1ryy
.	.	.	.	.	.	.	16C\JJ	.	.	.	.	.	.
*	*	*	*	*	*	*	*	*ij	*	*	*	*	*
8r	.	.	.	.	.	.	16E\LL	tur-	.	.	.	.	.
.	.	.	.	.	.	.	16C\JJ	.	.	.	.	.	.
8c\	6	.	.	.	.	.	16BB/LL	-ris	.	.	.	.	.
.	5	.	.	.	.	.	16AA/JJ	.	.	.	.	.	.
*	*	*	*	*	*	*	*	*Xij	*	*	*	*	*
8r	.	.	.	.	.	.	16E\LL	e-	.	.	.	.	.
.	.	.	.	.	.	.	16G\JJ	.	.	.	.	.	.
!LO:TX:a:t=P:problem=mixedbeam	!	!	!	!	!	!	!	!	!	!	!	!	!
8d\L	.	.	.	.	.	.	16F#\	-bur-	.	.	.	.	.
.	.	.	.	.	.	.	16E\	-ne-	.	.	.	.	.
8D/J	.	.	.	.	.	.	8D\	-a.	.	.	.	.	.
16D`/LL	.	.	.	.	.	.	4r	.	.	.	.	.	.
16Cn`/	.	.	.	.	.	.	.	.	.	.	.	.	.
16BB`/	.	.	.	.	.	.	.	.	.	.	.	.	.
16AA`/JJ	.	.	.	.	.	.	.	.	.	.	.	.	.
=33	=33	=33	=33	=33	=33	=33	=33	=33	=33	=33	=33	=33	=33
!	!	!	!	!	!	!	!LO:LB:g=original	!	!	!	!	!	!
!LO:TX:a:t=P:problem=mixedbeam	!	!	!	!	!	!	!	!	!	!	!	!	!
8GG/L	.	.	1ryy	.	.	1ryy	4.G\	Ro-	1ryy	1ryy	1ryy	1ryy	1ryy
16G\L	.	.	.	.	.	.	.	.	.	.	.	.	.
16A\JJ	.	.	.	.	.	.	.	.	.	.	.	.	.
8B\L	6	.	.	.	.	.	.	.	.	.	.	.	.
8G\J	.	.	.	.	.	.	16B\LL	-sa	.	.	.	.	.
.	.	.	.	.	.	.	16G\JJ	.	.	.	.	.	.
8D\L	.	.	.	.	.	.	16d\	Mis-	.	.	.	.	.
.	.	.	.	.	.	.	16D\	-ti-	.	.	.	.	.
8E\	.	.	.	.	.	.	8D\	-ca	.	.	.	.	.
8F#\J	6	.	.	.	.	.	16r	.	.	.	.	.	.
.	.	.	.	.	.	.	16D\LL	Tur-	.	.	.	.	.
8r	.	.	.	.	.	.	16c\	.	.	.	.	.	.
.	.	.	.	.	.	.	16A\JJ	.	.	.	.	.	.
=34	=34	=34	=34	=34	=34	=34	=34	=34	=34	=34	=34	=34	=34
8D\	.	.	1ryy	0r	.	1ryy	16G\LL	-ris	1ryy	1ryy	1ryy	1ryy	1ryy
.	.	.	.	.	.	.	16F#\JJ	.	.	.	.	.	.
*	*	*	*	*	*	*	*	*ij	*	*	*	*	*
8r	.	.	.	.	.	.	16A\LL	tur-	.	.	.	.	.
.	.	.	.	.	.	.	16F#\JJ	.	.	.	.	.	.
8F#\	.	.	.	.	.	.	16E\LL	-ris	.	.	.	.	.
.	.	.	.	.	.	.	16D\JJ	.	.	.	.	.	.
*	*	*	*	*	*	*	*	*Xij	*	*	*	*	*
8r	.	.	.	.	.	.	16A\LL	Da-	.	.	.	.	.
.	.	.	.	.	.	.	16C\JJ	.	.	.	.	.	.
!LO:TX:a:t=P:problem=mixedbeam	!	!	!	!	!	!	!	!	!	!	!	!	!
16GG/LL	.	.	.	.	.	.	16BB/	-vi-	.	.	.	.	.
16G\	.	.	.	.	.	.	16C/	-di-	.	.	.	.	.
16F#\	6	.	.	.	.	.	8D\	-ca	.	.	.	.	.
16E\JJ	.	.	.	.	.	.	.	.	.	.	.	.	.
8F#\	.	.	.	.	.	.	16r	.	.	.	.	.	.
.	.	.	.	.	.	.	16D\LL	Tur-	.	.	.	.	.
8r	.	.	.	.	.	.	16c\	.	.	.	.	.	.
.	.	.	.	.	.	.	16A\JJ	.	.	.	.	.	.
=35	=35	=35	=35	=35	=35	=35	=35	=35	=35	=35	=35	=35	=35
!	!	!	!	!	!	!	!LO:PB:g=original	!	!	!	!	!	!
8D\	.	.	1ryy	.	.	1ryy	16G\LL	-ris	1ryy	1ryy	1ryy	1ryy	1ryy
.	.	.	.	.	.	.	16F#\JJ	.	.	.	.	.	.
*	*	*	*	*	*	*	*	*ij	*	*	*	*	*
8r	.	.	.	.	.	.	16A\LL	tur-	.	.	.	.	.
.	.	.	.	.	.	.	16F#\JJ	.	.	.	.	.	.
8F#\	.	.	.	.	.	.	16E\LL	-ris	.	.	.	.	.
.	.	.	.	.	.	.	16D\JJ	.	.	.	.	.	.
*	*	*	*	*	*	*	*	*Xij	*	*	*	*	*
8r	.	.	.	.	.	.	16A\LL	E-	.	.	.	.	.
.	.	.	.	.	.	.	16C\JJ	.	.	.	.	.	.
!LO:TX:a:t=P:problem=mixedbeam	!	!	!	!	!	!	!	!	!	!	!	!	!
8G\L	.	.	.	.	.	.	16BB/	-bur-	.	.	.	.	.
.	.	.	.	.	.	.	16AA/	-ne-	.	.	.	.	.
8GG/J	.	.	.	.	.	.	8GGw/	-a	.	.	.	.	.
4r	.	.	.	.	.	.	16G\LL	O-	.	.	.	.	.
.	.	.	.	.	.	.	16A\	.	.	.	.	.	.
.	.	.	.	.	.	.	16B\	.	.	.	.	.	.
.	.	.	.	.	.	.	16c\JJ	.	.	.	.	.	.
=36	=36	=36	=36	=36	=36	=36	=36	=36	=36	=36	=36	=36	=36
!LO:LB:g=original	!	!	!	!	!	!	!	!	!	!	!	!	!
*	*	*	*	*^	*	*	*	*	*	*	*	*	*
8r	.	.	1ryy	2r	2r	.	1ryy	16d\LL	.	1ryy	1ryy	1ryy	1ryy	1ryy
.	.	.	.	.	.	.	.	16c\	.	.	.	.	.	.
8G\L	n7	.	.	.	.	.	.	16B\	.	.	.	.	.	.
.	_	.	.	.	.	.	.	16A\JJ	.	.	.	.	.	.
8A\	.	.	.	.	.	.	.	16G\LL	-ra	.	.	.	.	.
.	.	.	.	.	.	.	.	16Fn\JJ	.	.	.	.	.	.
8B\J	.	.	.	.	.	.	.	16E\LL	pro	.	.	.	.	.
.	x	.	.	.	.	.	.	16D\JJ	.	.	.	.	.	.
4c\	.	.	.	16r	16r	.	.	24E\LL	no-	.	.	.	.	.
.	.	.	.	.	.	.	.	24D\	.	.	.	.	.	.
.	.	.	.	16gg/LL	16ee\LL	.	.	.	.	.	.	.	.	.
.	.	.	.	.	.	.	.	24C\JJ	.	.	.	.	.	.
.	.	.	.	16ccc/	16ee\	.	.	8C/	-bis	.	.	.	.	.
.	.	.	.	16gg/JJ	16ee\JJ	.	.	.	.	.	.	.	.	.
16r	.	.	.	4gg/	16gg\LL	.	.	4r	.	.	.	.	.	.
16B\LL	3	.	.	.	16dd\	.	.	.	.	.	.	.	.	.
16c\	3	.	.	.	16ee\	.	.	.	.	.	.	.	.	.
16d\JJ	3	.	.	.	16ffn\JJ	.	.	.	.	.	.	.	.	.
=37	=37	=37	=37	=37	=37	=37	=37	=37	=37	=37	=37	=37	=37	=37
8c\	.	.	1ryy	16gg/LL	16ee\LL	.	1ryy	2r	.	1ryy	1ryy	1ryy	1ryy	1ryy
.	.	.	.	16ee/	16g\	.	.	.	.	.	.	.	.	.
8r	.	.	.	16dd/	16fn\	.	.	.	.	.	.	.	.	.
.	.	.	.	16cc/JJ	16e\JJ	.	.	.	.	.	.	.	.	.
8G\	.	.	.	16b/LL	16d\LL	.	.	.	.	.	.	.	.	.
.	.	.	.	16b/	16d\	.	.	.	.	.	.	.	.	.
8r	.	.	.	16cc/	16e\	.	.	.	.	.	.	.	.	.
.	.	.	.	16dd/JJ	16f\JJ	.	.	.	.	.	.	.	.	.
8C/L	.	.	.	4cc/	4e\	.	.	4r	.	.	.	.	.	.
16C/L	.	.	.	.	.	.	.	.	.	.	.	.	.	.
16BB/JJ	6	.	.	.	.	.	.	.	.	.	.	.	.	.
8AA/	.	.	.	4r	4ryy	.	.	16A\LL	o-	.	.	.	.	.
.	.	.	.	.	.	.	.	16B\	.	.	.	.	.	.
8r	.	.	.	.	.	.	.	16c#X\	.	.	.	.	.	.
.	.	.	.	.	.	.	.	16d\JJ	.	.	.	.	.	.
=38	=38	=38	=38	=38	=38	=38	=38	=38	=38	=38	=38	=38	=38	=38
!	!	!	!	!	!	!	!	!LO:LB:g=original	!	!	!	!	!	!
8r	.	.	1ryy	2r	2ryy	.	1ryy	16e\LL	.	1ryy	1ryy	1ryy	1ryy	1ryy
.	.	.	.	.	.	.	.	16d\	.	.	.	.	.	.
8A\L	7	.	.	.	.	.	.	16c\	.	.	.	.	.	.
.	.	.	.	.	.	.	.	16B\JJ	.	.	.	.	.	.
8B\	.	.	.	.	.	.	.	16A\LL	-ra	.	.	.	.	.
.	.	.	.	.	.	.	.	16G\JJ	.	.	.	.	.	.
8c#X\J	.	.	.	.	.	.	.	16F#\LL	pro	.	.	.	.	.
.	.	.	.	.	.	.	.	16E\JJ	.	.	.	.	.	.
4d\	.	.	.	16r	16ryy	.	.	24F#\LL	no-	.	.	.	.	.
.	.	.	.	.	.	.	.	24E\	.	.	.	.	.	.
.	.	.	.	16aa/LL	16ff#X\LL	.	.	.	.	.	.	.	.	.
.	.	.	.	.	.	.	.	24D\JJ	.	.	.	.	.	.
.	.	.	.	16ddd/	16ff#\	.	.	8D\	-bis	.	.	.	.	.
.	.	.	.	16aa/JJ	16ff#\JJ	.	.	.	.	.	.	.	.	.
16r	.	.	.	4aa/	16aa\LL	.	.	4r	.	.	.	.	.	.
16c#X\LL	3	.	.	.	16ee\	.	.	.	.	.	.	.	.	.
16d\	3	.	.	.	16ff#\	.	.	.	.	.	.	.	.	.
16e\JJ	3	.	.	.	16gg\JJ	.	.	.	.	.	.	.	.	.
=39	=39	=39	=39	=39	=39	=39	=39	=39	=39	=39	=39	=39	=39	=39
!	!	!	!	!LO:LB:g=original	!	!	!	!	!	!	!	!	!	!
!	!	!	!	!	!	!	!	!LO:TX:a:t=1	!	!	!	!	!	!
8d\	.	.	1ryy	16aa/LL	16a\LL	.	1ryy	1r	.	1ryy	1ryy	1ryy	1ryy	1ryy
.	.	.	.	16ff#/	16a\	.	.	.	.	.	.	.	.	.
8r	.	.	.	16ee/	16g\	.	.	.	.	.	.	.	.	.
.	.	.	.	16dd/JJ	16f#\JJ	.	.	.	.	.	.	.	.	.
8A\	.	.	.	16dd	16f#	.	.	.	.	.	.	.	.	.
.	#	.	.	16cc#/	16e\	.	.	.	.	.	.	.	.	.
8r	.	.	.	16dd/	16f#\	.	.	.	.	.	.	.	.	.
.	.	.	.	16ee/JJ	16g\JJ	.	.	.	.	.	.	.	.	.
4D\	.	.	.	8dd/	8f#\	.	.	.	.	.	.	.	.	.
.	.	.	.	16r	8ryy	.	.	.	.	.	.	.	.	.
.	.	.	.	16dd\	.	.	.	.	.	.	.	.	.	.
4r	.	.	.	16cc#X\LL	4ryy	.	.	.	.	.	.	.	.	.
.	.	.	.	16dd\	.	.	.	.	.	.	.	.	.	.
.	.	.	.	16cc#\	.	.	.	.	.	.	.	.	.	.
.	.	.	.	16dd\JJ	.	.	.	.	.	.	.	.	.	.
=40	=40	=40	=40	=40	=40	=40	=40	=40	=40	=40	=40	=40	=40	=40
16r	.	.	1ryy	8d/	2ryy	.	1ryy	16r	.	1ryy	1ryy	1ryy	1ryy	1ryy
16F#\LL	3	.	.	.	.	.	.	16A\LL	Do-	.	.	.	.	.
16G\	3	.	.	8r	.	.	.	16B\JJ	.	.	.	.	.	.
16A\JJ	3	.	.	.	.	.	.	16c\	-mus	.	.	.	.	.
16G\LL	3	.	.	8G/	.	.	.	16B\	au-	.	.	.	.	.
16B\J	3	.	.	.	.	.	.	16d\	-re-	.	.	.	.	.
8B\J	3	.	.	8r	.	.	.	8d\	-a	.	.	.	.	.
8D\	.	.	.	4dd/	16dd\LL	.	.	16r	.	.	.	.	.	.
.	.	.	.	.	16a\	.	.	16F#\	Fe-	.	.	.	.	.
8r	.	.	.	.	16b\	.	.	16G\	-de-	.	.	.	.	.
.	.	.	.	.	16cc\JJ	.	.	16A\	-ris	.	.	.	.	.
8G\	.	.	.	16b\LL	4ryy	.	.	16G\LL	ar-	.	.	.	.	.
.	.	.	.	16dd\J	.	.	.	16B\JJ	.	.	.	.	.	.
8r	.	.	.	8dd\J	.	.	.	8B\	-ca	.	.	.	.	.
*	*	*	*	*v	*v	*	*	*	*	*	*	*	*	*
=41	=41	=41	=41	=41	=41	=41	=41	=41	=41	=41	=41	=41	=41
!LO:LB:g=original	!	!	!	!	!	!	!LO:LB:g=original	!	!	!	!	!	!
8C/	3	.	1ryy	24ee\LL	.	1ryy	8C\	o-	1ryy	1ryy	1ryy	1ryy	1ryy
.	.	.	.	24g\	.	.	.	.	.	.	.	.	.
.	.	.	.	24ee\JJ	.	.	.	.	.	.	.	.	.
8r	.	.	.	24ee\LL	.	.	8r	.	.	.	.	.	.
.	.	.	.	24ff#\	.	.	.	.	.	.	.	.	.
.	.	.	.	24gg\JJ	.	.	.	.	.	.	.	.	.
8D/	3	.	.	24ff#\LL	.	.	8D\	.	.	.	.	.	.
.	.	.	.	24a\	.	.	.	.	.	.	.	.	.
.	.	.	.	24ff#\JJ	.	.	.	.	.	.	.	.	.
8r	.	.	.	24ff#\LL	.	.	8r	.	.	.	.	.	.
.	.	.	.	24gg\	.	.	.	.	.	.	.	.	.
.	.	.	.	24aa\JJ	.	.	.	.	.	.	.	.	.
8E\	3	.	.	24gg\LL	.	.	8E\	.	.	.	.	.	.
.	.	.	.	24b\	.	.	.	.	.	.	.	.	.
.	.	.	.	24gg\JJ	.	.	.	.	.	.	.	.	.
8r	.	.	.	24gg\LL	.	.	8r	.	.	.	.	.	.
.	.	.	.	24aa\	.	.	.	.	.	.	.	.	.
.	.	.	.	24bb\JJ	.	.	.	.	.	.	.	.	.
8F#\	3.	.	.	24aa\LL	.	.	8F#\	.	.	.	.	.	.
.	.	.	.	24ee\	.	.	.	.	.	.	.	.	.
.	.	.	.	24aa\JJ	.	.	.	.	.	.	.	.	.
8r	.	.	.	24aa\LL	.	.	8r	.	.	.	.	.	.
.	.	.	.	24bb\	.	.	.	.	.	.	.	.	.
.	.	.	.	24ccc\JJ	.	.	.	.	.	.	.	.	.
=42	=42	=42	=42	=42	=42	=42	=42	=42	=42	=42	=42	=42	=42
!	!	!	!	!LO:LB:g=original	!	!	!	!	!	!	!	!	!
*	*	*	*	*^	*	*	*	*	*	*	*	*	*
8G\	.	.	1ryy	8bb\	2ryy	.	1ryy	8G\	-ra	1ryy	1ryy	1ryy	1ryy	1ryy
8r	.	.	.	8r	.	.	.	8D\	Ia-	.	.	.	.	.
4r	.	.	.	4r	.	.	.	8D\	-nu-	.	.	.	.	.
.	.	.	.	.	.	.	.	8D\	-a	.	.	.	.	.
8G\	.	.	.	16r	16ryy	.	.	[2D\	Cae-	.	.	.	.	.
.	.	.	.	16dd/LL	16b\LL	.	.	.	.	.	.	.	.	.
8r	.	.	.	16gg/	16b\	.	.	.	.	.	.	.	.	.
.	.	.	.	16dd/JJ	16b\JJ	.	.	.	.	.	.	.	.	.
8D\	.	.	.	16cc/LL	16a\LL	.	.	.	.	.	.	.	.	.
.	.	.	.	16a/	16f#\	.	.	.	.	.	.	.	.	.
8r	.	.	.	16f#/	16d\	.	.	.	.	.	.	.	.	.
.	.	.	.	16d/JJ	16c\JJ	.	.	.	.	.	.	.	.	.
=43	=43	=43	=43	=43	=43	=43	=43	=43	=43	=43	=43	=43	=43	=43
8GG/	.	.	1ryy	16d/LL	16B\LL	.	1ryy	2D\]	.	1ryy	1ryy	1ryy	1ryy	1ryy
.	.	.	.	16dd/	16b\	.	.	.	.	.	.	.	.	.
8r	.	.	.	16gg/	16b\	.	.	.	.	.	.	.	.	.
.	.	.	.	16dd/JJ	16b\JJ	.	.	.	.	.	.	.	.	.
8D\	.	.	.	16cc/LL	16a\LL	.	.	.	.	.	.	.	.	.
.	.	.	.	16a/	16f#\	.	.	.	.	.	.	.	.	.
8r	.	.	.	16f#/	16d\	.	.	.	.	.	.	.	.	.
.	.	.	.	16d/JJ	16c\JJ	.	.	.	.	.	.	.	.	.
!LO:TX:a:t=P:problem=mixedbeam	!	!	!	!	!	!	!	!	!	!	!	!	!	!
8G\L	.	.	.	8d/	8B\	.	.	8D\	-li	.	.	.	.	.
8BB\	6	.	.	8r	8ryy	.	.	16G\	Stel-	.	.	.	.	.
.	.	.	.	.	.	.	.	16F#\	-la	.	.	.	.	.
8BB\	.	.	.	4r	4ryy	.	.	16E\LL	Ma-	.	.	.	.	.
.	.	.	.	.	.	.	.	16D\JJ	.	.	.	.	.	.
8BB\J	.	.	.	.	.	.	.	16C\LL	-tu-	.	.	.	.	.
.	.	.	.	.	.	.	.	16BB\JJ	.	.	.	.	.	.
*	*	*	*	*v	*v	*	*	*	*	*	*	*	*	*
=44	=44	=44	=44	=44	=44	=44	=44	=44	=44	=44	=44	=44	=44
!	!	!	!	!	!	!	!LO:TX:a:t=P:problem=mixedbeam	!	!	!	!	!	!
8C/L	5	.	1ryy	0r	.	1ryy	8AA/L	-ti-	1ryy	1ryy	1ryy	1ryy	1ryy
8C#X/	6	.	.	.	.	.	16A\L	.	.	.	.	.	.
.	.	.	.	.	.	.	16G\JJ	.	.	.	.	.	.
8C#/	.	.	.	.	.	.	16F#\LL	.	.	.	.	.	.
.	.	.	.	.	.	.	16E\	.	.	.	.	.	.
8C#/J	.	.	.	.	.	.	16D\	.	.	.	.	.	.
.	.	.	.	.	.	.	16C\JJ	.	.	.	.	.	.
8D\L	5	.	.	.	.	.	8BB/	-na	.	.	.	.	.
8D#X\	6	.	.	.	.	.	16B\LL	o-	.	.	.	.	.
.	.	.	.	.	.	.	16A\JJ	.	.	.	.	.	.
!	!	!	!	!	!	!	!LO:LB:g=original	!	!	!	!	!	!
8D#\	.	.	.	.	.	.	16G\LL	.	.	.	.	.	.
.	.	.	.	.	.	.	16F#\	.	.	.	.	.	.
8D#\J	.	.	.	.	.	.	16E\	.	.	.	.	.	.
.	.	.	.	.	.	.	16D\JJ	.	.	.	.	.	.
=45	=45	=45	=45	=45	=45	=45	=45	=45	=45	=45	=45	=45	=45
!	!	!	!	!	!	!	!LO:TX:a:t=P:problem=mixedbeam	!	!	!	!	!	!
*tremolo	*	*	*	*	*	*	*	*	*	*	*	*	*
16E\L	5	.	1ryy	.	.	1ryy	8C/L	.	1ryy	1ryy	1ryy	1ryy	1ryy
16E\	.	.	.	.	.	.	.	.	.	.	.	.	.
16E\	.	.	.	.	.	.	16c\L	.	.	.	.	.	.
16E\	.	.	.	.	.	.	16B\JJ	.	.	.	.	.	.
16E\	6	.	.	.	.	.	16A\LL	.	.	.	.	.	.
16E\	.	.	.	.	.	.	16G\	.	.	.	.	.	.
16E\	.	.	.	.	.	.	16F#\	.	.	.	.	.	.
16E\J	.	.	.	.	.	.	16E\JJ	.	.	.	.	.	.
16F#\L	5	.	.	.	.	.	4D\	-ra	.	.	.	.	.
16F#\	.	.	.	.	.	.	.	.	.	.	.	.	.
16F#\	.	.	.	.	.	.	.	.	.	.	.	.	.
16F#\	.	.	.	.	.	.	.	.	.	.	.	.	.
16F#\	6	.	.	.	.	.	16D\LL	o-	.	.	.	.	.
16F#\	.	.	.	.	.	.	16F#\	.	.	.	.	.	.
16F#\	.	.	.	.	.	.	16A\	.	.	.	.	.	.
16F#\J	.	.	.	.	.	.	16c\JJ	.	.	.	.	.	.
*Xtremolo	*	*	*	*	*	*	*	*	*	*	*	*	*
=46	=46	=46	=46	=46	=46	=46	=46	=46	=46	=46	=46	=46	=46
!LO:TX:a:t=P:problem=mixedbeam	!	!	!	!LO:TX:a:t=Da Capo:	!	!	!	!	!	!	!	!	!
8G\L	.	.	1ryy	1r	.	1ryy	16B\LL	.	1ryy	1ryy	1ryy	1ryy	1ryy
.	.	.	.	.	.	.	16G\	.	.	.	.	.	.
8GG/	.	.	.	.	.	.	16F#\	.	.	.	.	.	.
.	.	.	.	.	.	.	16G\JJ	.	.	.	.	.	.
8F#\	6	.	.	.	.	.	16D\LL	.	.	.	.	.	.
.	.	.	.	.	.	.	16F#\	.	.	.	.	.	.
8D\J	.	.	.	.	.	.	16A\	.	.	.	.	.	.
.	.	.	.	.	.	.	16c\JJ	.	.	.	.	.	.
!LO:TX:a:t=P:problem=mixedbeam	!	!	!	!	!	!	!	!	!	!	!	!	!
8G\L	.	.	.	.	.	.	16B\LL	-ra	.	.	.	.	.
.	.	.	.	.	.	.	16G\JJ	.	.	.	.	.	.
8C\	6 5	.	.	.	.	.	16E\LL	pro	.	.	.	.	.
.	.	.	.	.	.	.	16A\JJ	.	.	.	.	.	.
8D\	.	.	.	.	.	.	8G\L	no-	.	.	.	.	.
8DD/J	.	.	.	.	.	.	8F#\J	.	.	.	.	.	.
=47	=47	=47	=47	=47	=47	=47	=47	=47	=47	=47	=47	=47	=47
!	!	!	!	!	!	!	!LO:LB:g=original	!	!	!	!	!	!
8G\L	.	.	1ryy	1ryy	.	1ryy	4G\	-bis	1ryy	1ryy	1ryy	1ryy	1ryy
8A\	.	.	.	.	.	.	.	.	.	.	.	.	.
8B\	6	.	.	.	.	.	4r	.	.	.	.	.	.
8G\J	.	.	.	.	.	.	.	.	.	.	.	.	.
!LO:LB:g=original	!	!	!	!	!	!	!	!	!	!	!	!	!
8D\L	.	.	.	.	.	.	2r	.	.	.	.	.	.
8E\	.	.	.	.	.	.	.	.	.	.	.	.	.
8F#\J	6	.	.	.	.	.	.	.	.	.	.	.	.
8r	.	.	.	.	.	.	.	.	.	.	.	.	.
=48	=48	=48	=48	=48	=48	=48	=48	=48	=48	=48	=48	=48	=48
!	!	!	!	!	!	!	!LO:TX:a:t=7	!	!	!	!	!	!
8D\	.	.	1ryy	1ryy	.	1ryy	00r	.	1ryy	1ryy	1ryy	1ryy	1ryy
8r	.	.	.	.	.	.	.	.	.	.	.	.	.
8F#\	6	.	.	.	.	.	.	.	.	.	.	.	.
8r	.	.	.	.	.	.	.	.	.	.	.	.	.
!LO:TX:a:t=P:problem=mixedbeam	!	!	!	!	!	!	!	!	!	!	!	!	!
16GG/LL	.	.	.	.	.	.	.	.	.	.	.	.	.
16G\	.	.	.	.	.	.	.	.	.	.	.	.	.
16F#\	6	.	.	.	.	.	.	.	.	.	.	.	.
16E\JJ	.	.	.	.	.	.	.	.	.	.	.	.	.
8F#\	6	.	.	.	.	.	.	.	.	.	.	.	.
8r	.	.	.	.	.	.	.	.	.	.	.	.	.
=49	=49	=49	=49	=49	=49	=49	=49	=49	=49	=49	=49	=49	=49
8D\	.	.	1ryy	1ryy	.	1ryy	.	.	1ryy	1ryy	1ryy	1ryy	1ryy
8r	.	.	.	.	.	.	.	.	.	.	.	.	.
8F#\	6	.	.	.	.	.	.	.	.	.	.	.	.
8r	.	.	.	.	.	.	.	.	.	.	.	.	.
8G\L	.	.	.	.	.	.	.	.	.	.	.	.	.
8D\	.	.	.	.	.	.	.	.	.	.	.	.	.
8GG\J	.	.	.	.	.	.	.	.	.	.	.	.	.
8r	.	.	.	.	.	.	.	.	.	.	.	.	.
=50	=50	=50	=50	=50	=50	=50	=50	=50	=50	=50	=50	=50	=50
2r	.	.	1ryy	1ryy	.	1ryy	.	.	1ryy	1ryy	1ryy	1ryy	1ryy
8r	.	.	.	.	.	.	.	.	.	.	.	.	.
8E\L	6\	.	.	.	.	.	.	.	.	.	.	.	.
8A\	#	.	.	.	.	.	.	.	.	.	.	.	.
8G\J	.	.	.	.	.	.	.	.	.	.	.	.	.
=51	=51	=51	=51	=51	=51	=51	=51	=51	=51	=51	=51	=51	=51
8F#\L	6	.	1ryy	1ryy	.	1ryy	.	.	1ryy	1ryy	1ryy	1ryy	1ryy
8D\J	.	.	.	.	.	.	.	.	.	.	.	.	.
16r	.	.	.	.	.	.	.	.	.	.	.	.	.
16D\LL	n7	.	.	.	.	.	.	.	.	.	.	.	.
16E\	.	.	.	.	.	.	.	.	.	.	.	.	.
16F#\JJ	.	.	.	.	.	.	.	.	.	.	.	.	.
!LO:TX:a:t=P:problem=mixedbeam	!	!	!	!	!	!	!	!	!	!	!	!	!
8G\L	.	.	.	.	.	.	.	.	.	.	.	.	.
8GG/J	.	.	.	.	.	.	.	.	.	.	.	.	.
16r	.	.	.	.	.	.	.	.	.	.	.	.	.
16G\LL	.	.	.	.	.	.	.	.	.	.	.	.	.
16B\	.	.	.	.	.	.	.	.	.	.	.	.	.
16A\JJ	9	.	.	.	.	.	.	.	.	.	.	.	.
=52	=52	=52	=52	=52	=52	=52	=52	=52	=52	=52	=52	=52	=52
8G\	.	.	1ryy	1ryy	.	1ryy	0r	.	1ryy	1ryy	1ryy	1ryy	1ryy
8r	.	.	.	.	.	.	.	.	.	.	.	.	.
4r	.	.	.	.	.	.	.	.	.	.	.	.	.
8r	.	.	.	.	.	.	.	.	.	.	.	.	.
8D\L	.	.	.	.	.	.	.	.	.	.	.	.	.
8d\	.	.	.	.	.	.	.	.	.	.	.	.	.
8c\J	.	.	.	.	.	.	.	.	.	.	.	.	.
=53	=53	=53	=53	=53	=53	=53	=53	=53	=53	=53	=53	=53	=53
!LO:TX:a:t=P:problem=mixedbeam	!	!	!	!	!	!	!	!	!	!	!	!	!
8B\L	6	.	1ryy	1ryy	.	1ryy	.	.	1ryy	1ryy	1ryy	1ryy	1ryy
8c\	6 5	.	.	.	.	.	.	.	.	.	.	.	.
8d\	4	.	.	.	.	.	.	.	.	.	.	.	.
8D/J	3	.	.	.	.	.	.	.	.	.	.	.	.
!LO:LB:g=original	!	!	!	!	!	!	!	!	!	!	!	!	!
!LO:TX:a:t=P:problem=mixedbeam	!	!	!	!	!	!	!	!	!	!	!	!	!
16GG/LL	.	.	.	.	.	.	.	.	.	.	.	.	.
16G\	.	.	.	.	.	.	.	.	.	.	.	.	.
16B\	.	.	.	.	.	.	.	.	.	.	.	.	.
16G\JJ	.	.	.	.	.	.	.	.	.	.	.	.	.
16r	.	.	.	.	.	.	.	.	.	.	.	.	.
16B\LL	.	.	.	.	.	.	.	.	.	.	.	.	.
16d\	.	.	.	.	.	.	.	.	.	.	.	.	.
16B\JJ	.	.	.	.	.	.	.	.	.	.	.	.	.
=54	=54	=54	=54	=54	=54	=54	=54	=54	=54	=54	=54	=54	=54
16r	.	.	1ryy	1ryy	.	1ryy	1r	.	1ryy	1ryy	1ryy	1ryy	1ryy
16G\LL	.	.	.	.	.	.	.	.	.	.	.	.	.
16c\	.	.	.	.	.	.	.	.	.	.	.	.	.
16G\JJ	.	.	.	.	.	.	.	.	.	.	.	.	.
16r	.	.	.	.	.	.	.	.	.	.	.	.	.
16D\LL	.	.	.	.	.	.	.	.	.	.	.	.	.
16F#\	.	.	.	.	.	.	.	.	.	.	.	.	.
16D\JJ	.	.	.	.	.	.	.	.	.	.	.	.	.
!LO:TX:a:t=P:problem=mixedbeam	!	!	!	!	!	!	!	!	!	!	!	!	!
8G\L	.	.	.	.	.	.	.	.	.	.	.	.	.
8GG/J	.	.	.	.	.	.	.	.	.	.	.	.	.
4GG/	.	.	.	.	.	.	.	.	.	.	.	.	.
=||	=||	=||	=||	=||	=||	=||	=||	=||	=||	=||	=||	=||	=||
*-	*-	*-	*-	*-	*-	*-	*-	*-	*-	*-	*-	*-	*-
!!!system-decoration: [(s1,s2)][(s3,s4,s5,s6)][(s7,s8,s9)][(s10)]
!!!EED: Leszek Kubiak
!!!EEV: 2020-06-23
!!!ENC: Kamil Watkowski
!!!END: 2020-06-20
!!!YEC: Copyright 2022 Narodowy Instytut Fryderyka Chopina (https://polishscores.org)
!!!YEM: License CC-BY-4.0 (https://creativecommons.org/licenses/by/4.0)
